public/icons/crane_icon.svg

<svg width="330" height="330" viewBox="0 0 330 330" fill="none" xmlns="http://www.w3.org/2000/svg">
<path d="M102.089 22.0883C108.315 21.9822 115.314 21.7506 121.414 23.0083C122.788 24.2811 122.747 24.9727 123.32 26.6243C124.155 29.0281 126.116 29.0519 128.306 29.7316C155.342 38.0504 182.334 46.5098 209.281 55.1089C216.643 57.4369 224.036 59.699 231.36 62.1407C235.239 63.434 239.25 65.287 243.256 66.0684C252.348 67.8434 272.521 64.6592 279.113 67.851C281.085 69.9691 281.379 72.5115 281.53 75.3072C281.825 80.7534 282.211 96.1613 281.079 100.878C280.814 101.984 280.24 102.649 279.489 103.472C274.455 105.712 251.451 104.094 244.577 104.109C244.742 104.441 244.914 104.77 245.066 105.109C246.209 107.678 245.999 124.83 245.019 127.155C248.894 128.791 251.79 130.656 254.22 134.153C258.148 139.803 259.546 150.276 258.144 156.953C256.092 166.719 249.166 161.45 245.044 164.17C245.355 168.221 252.083 170.292 254.246 173.934C257.082 178.708 255.845 184.101 254.586 189.127C254.69 189.199 254.807 189.254 254.897 189.342C256.926 191.299 261.13 197.818 261.353 200.532C266.368 200.763 279.119 198.91 282.577 202.316C284.297 204.009 284.788 206.759 284.862 209.08C285.154 218.229 284.656 227.576 284.693 236.759C284.731 246.147 285.475 256.207 284.499 265.519C284.311 267.312 284.152 269.171 282.873 270.538C275.995 272.704 207.751 272.109 197.292 270.969L197.65 270.434L196.479 270.681C196.442 270.634 196.389 270.594 196.368 270.537C194.617 265.879 194.707 205.645 196.781 201.971C201.087 199.364 208.443 200.451 213.365 200.533C216.751 198.842 222.68 193.266 224.645 189.99C224.605 186.241 221.438 184.014 222.497 179.615C223.445 178.243 224.044 177.682 225.568 176.988C230.777 177.659 232.118 186.393 237.082 188.768C238.639 189.513 240.323 189.515 241.938 188.955C243.774 188.319 245.579 187.187 246.425 185.378C247.33 183.443 247.734 180.234 246.893 178.23C245.516 174.945 241.479 176.313 238.901 174.978C236.314 173.638 236.085 166.856 235.022 164.033C234.298 164.012 233.571 163.977 232.847 163.968C231.124 163.943 229.071 164.19 227.667 162.968C226.193 161.686 225.844 159.608 225.603 157.757C224.78 151.391 224.182 138.958 228.898 134.096C230.935 131.996 234.125 130.327 235.779 128.036C235.886 127.886 235.988 127.733 236.093 127.58C236.184 127.331 236.281 127.084 236.366 126.833C237.465 123.566 237.305 106.829 235.959 104.14L134.689 104.115C134.966 104.581 135.098 104.751 135.284 105.224C136.195 107.531 142.965 249.138 143.151 263.384C143.17 264.856 143.111 265.776 142.457 267.118C147.555 267.176 160.35 265.418 164.347 268.109C165.715 269.03 166.285 270.61 166.575 272.166C167.216 275.604 167.196 297.7 166.787 301.957C166.634 303.555 166.363 304.633 165.497 305.982C163.092 306.632 160.581 306.71 158.101 306.756C134.419 307.198 110.672 306.711 86.9828 306.698C80.1626 306.693 63.484 308.104 57.8331 306.462C56.9161 305.326 56.5014 304.292 56.13 302.877C54.5384 296.83 54.2298 272.78 57.0969 267.835C61.1583 265.658 74.3558 266.906 79.4609 266.969C80.064 260.899 79.9623 254.648 80.2503 248.547L82.21 210.596L87.9767 104.139C78.5872 104.051 58.3572 105.655 50.5961 104.19C49.2307 103.932 48.4262 103.95 47.6997 102.653C45.1239 98.0521 45.8266 74.07 47.4918 68.8868C50.0287 66.51 55.1826 67.3402 58.5358 67.3813C67.0116 59.1881 75.0683 50.6139 83.2809 42.1643C89.6463 35.6141 96.4005 29.2446 102.089 22.0883Z" fill="black"/>
<path d="M263.053 209.233C267.092 209.096 271.097 209.144 275.135 209.241C275.359 209.662 275.515 209.904 275.658 210.34C276.823 213.91 276.456 254.734 275.883 260.49C275.783 261.494 275.445 262.183 274.964 263.049C255.129 263.469 235.288 263.589 215.45 263.409L203.111 263.366C203.319 262.963 203.508 262.652 203.642 262.226C204.864 258.37 204.472 218.1 203.897 212.068C203.796 211.013 203.451 210.302 202.948 209.389C222.983 209.511 243.019 209.459 263.053 209.233Z" fill="#FECE00"/>
<path d="M163.032 75.8267L271.552 75.4814C271.961 76.2531 272.388 76.9805 272.525 77.8561C273.144 81.8228 273.676 91.9262 271.591 95.2284C263.841 94.9037 255.997 95.144 248.236 95.1375L139.209 95.1862C139.402 94.8225 139.72 94.2836 139.856 93.8647C141.016 90.3082 140.888 79.1549 139.173 75.9815L163.032 75.8267Z" fill="#FEFEFE"/>
<path d="M64.0905 275.758L157.032 275.781C157.269 276.257 157.558 276.74 157.709 277.253C158.638 280.419 158.596 294.914 157.043 297.675C154.164 299.039 74.3917 298.014 64.0688 298.004L64.0905 275.758Z" fill="#FEFEFE"/>
<path d="M129.525 187.206L130.58 187.657C131.646 191.129 133.911 248.604 133.952 254.839C133.967 257.007 133.904 258.955 133.218 261.036C132.199 257.632 119.37 246.729 116.111 243.618C108.821 236.614 101.85 229.265 94.7993 222.022C102.866 213.556 111.704 205.639 120.01 197.386C123.194 194.223 127.089 190.965 129.525 187.206Z" fill="#FEFEFE"/>
<path d="M124.933 37.8922C133.822 40.4 213.375 64.7219 215.251 66.2577C215.566 66.5153 215.765 66.8887 216.022 67.2036C209.28 68.3022 196.836 67.3692 189.573 67.3746L128.162 67.4417C129.202 61.9923 125.717 44.2519 124.933 37.8922Z" fill="#FEFEFE"/>
<path d="M94.234 145.913C98.8053 148.396 121.075 172.044 127.176 177.895L108.264 196.582L91.2705 213.291C91.9786 190.858 94.116 168.322 94.234 145.913Z" fill="#FEFEFE"/>
<path d="M126.247 110.526L126.828 111.432L128.823 148.158C129.117 153.846 129.932 160.016 129.519 165.681C129.445 166.695 129.088 167.372 128.585 168.23C127.813 164.576 118.983 157.529 115.997 154.606L98.4941 137.164C107.644 128.18 116.895 119.301 126.247 110.526Z" fill="#FEFEFE"/>
<path d="M101.456 76.4013L130.664 76.1643C130.942 76.7293 131.191 77.1957 131.273 77.8311C131.783 81.7556 132.236 92.0647 130.179 95.2304L121.836 95.2001C111.397 95.2012 100.959 95.2748 90.521 95.421C90.6304 89.1262 90.5838 82.8238 90.6055 76.528L101.456 76.4013Z" fill="#FEFEFE"/>
<path d="M89.8447 230.469C96.7374 236.594 103.105 243.516 109.746 249.933C115.164 255.168 122.271 260.513 126.671 266.574L125.92 267.012L87.938 267.03C89.3207 255.002 89.4571 242.575 89.8447 230.469Z" fill="#FEFEFE"/>
<path d="M54.9427 76.6288L81.7622 76.6158L81.7308 95.5575L54.9253 95.6279L54.9427 76.6288Z" fill="#FEFEFE"/>
<path d="M107.233 31.0488L115.302 31.3086C116.408 42.9013 119.705 55.0666 119.702 66.6561C118.285 67.6789 117.37 67.4138 115.651 67.43L101.656 67.5284C103.678 55.4021 105.379 43.2033 107.233 31.0488Z" fill="#FEFEFE"/>
<path d="M95.9566 42.1512L96.1126 42.3233C97.0903 44.9512 93.4047 62.9383 93.0474 67.4743L72.4492 67.4797L71.9219 66.9624L73.624 64.9839L72.7242 64.5293L73.8373 64.7003C81.2855 57.2572 88.6589 49.7405 95.9566 42.1512Z" fill="#FEFEFE"/>
<path d="M99.2751 104.01L120.219 103.928C115.14 108.647 110.125 113.434 105.177 118.289C101.938 121.505 98.6699 124.693 95.374 127.854C96.1265 122.532 94.9517 108.254 97.5178 104.327L99.2751 104.01Z" fill="#FEFEFE"/>
<path d="M239.131 136.203C241.276 135.818 243.087 135.828 245.056 136.887C246.812 137.831 247.766 139.205 248.258 141.093C249.486 144.187 249.524 150.706 248.724 153.963C246.844 154.783 243.99 154.461 241.935 154.49L233.504 154.964C234.749 152.46 234.163 148.806 234.158 146.045C234.147 141.371 235.991 139.333 239.131 136.203Z" fill="#FEFEFE"/>
<path d="M246.349 196.004C247.579 195.967 248.043 195.774 249.039 196.587C250.257 197.582 250.553 199.049 250.738 200.522L229.254 200.506L227.945 200.297C227.852 199.153 230.001 197.92 230.69 196.815C230.794 196.647 230.89 196.474 230.99 196.304C233.491 197.013 235.977 197.68 238.579 197.88C241.201 198.081 244.264 197.735 246.349 196.004Z" fill="#FEFEFE"/>
</svg>

<svg xmlns="http://www.w3.org/2000/svg" width="330" height="330" fill="none" viewBox="0 0 330 330"><path fill="#000" d="M102.089 22.088c6.226-.106 13.225-.337 19.325.92 1.374 1.273 1.333 1.965 1.906 3.616.835 2.404 2.796 2.428 4.986 3.108a8162 8162 0 0 1 80.975 25.377c7.362 2.328 14.755 4.59 22.079 7.032 3.879 1.293 7.89 3.146 11.896 3.927 9.092 1.775 29.265-1.409 35.857 1.783 1.972 2.118 2.266 4.66 2.417 7.456.295 5.446.681 20.854-.451 25.571-.265 1.106-.839 1.771-1.59 2.594-5.034 2.24-28.038.622-34.912.637.165.332.337.661.489 1 1.143 2.569.933 19.721-.047 22.046 3.875 1.636 6.771 3.501 9.201 6.998 3.928 5.65 5.326 16.123 3.924 22.8-2.052 9.766-8.978 4.497-13.1 7.217.311 4.051 7.039 6.122 9.202 9.764 2.836 4.774 1.599 10.167.34 15.193.104.072.221.127.311.215 2.029 1.957 6.233 8.476 6.456 11.19 5.015.231 17.766-1.622 21.224 1.784 1.72 1.693 2.211 4.443 2.285 6.764.292 9.149-.206 18.496-.169 27.679.038 9.388.782 19.448-.194 28.76-.188 1.793-.347 3.652-1.626 5.019-6.878 2.166-75.122 1.571-85.581.431l.358-.535-1.171.247c-.037-.047-.09-.087-.111-.144-1.751-4.658-1.661-64.892.413-68.566 4.306-2.607 11.662-1.52 16.584-1.438 3.386-1.691 9.315-7.267 11.28-10.543-.04-3.749-3.207-5.976-2.148-10.375.948-1.372 1.547-1.933 3.071-2.627 5.209.671 6.55 9.405 11.514 11.78 1.557.745 3.241.747 4.856.187 1.836-.636 3.641-1.768 4.487-3.577.905-1.935 1.309-5.144.468-7.148-1.377-3.285-5.414-1.917-7.992-3.252-2.587-1.34-2.816-8.122-3.879-10.945-.724-.021-1.451-.056-2.175-.065-1.723-.025-3.776.222-5.18-1-1.474-1.282-1.823-3.36-2.064-5.211-.823-6.366-1.421-18.799 3.295-23.661 2.037-2.1 5.227-3.769 6.881-6.06q.159-.226.314-.456c.091-.249.188-.496.273-.747 1.099-3.267.939-20.004-.407-22.693l-101.27-.025c.277.466.409.636.595 1.109.911 2.307 7.681 143.914 7.867 158.16.019 1.472-.04 2.392-.694 3.734 5.098.058 17.893-1.7 21.89.991 1.368.921 1.938 2.501 2.228 4.057.641 3.438.621 25.534.212 29.791-.153 1.598-.424 2.676-1.29 4.025-2.405.65-4.916.728-7.396.774-23.682.442-47.429-.045-71.118-.058-6.82-.005-23.499 1.406-29.15-.236-.917-1.136-1.332-2.17-1.703-3.585-1.592-6.047-1.9-30.097.967-35.042 4.061-2.177 17.259-.929 22.364-.866.603-6.07.501-12.321.79-18.422l1.959-37.951 5.767-106.457c-9.39-.088-29.62 1.516-37.38.051-1.366-.258-2.17-.24-2.897-1.537-2.576-4.6-1.873-28.583-.208-33.766 2.537-2.377 7.69-1.547 11.044-1.506 8.476-8.193 16.532-16.767 24.745-25.217 6.365-6.55 13.12-12.92 18.808-20.076"/><path fill="#fece00" d="M263.053 209.233c4.039-.137 8.044-.089 12.082.008.224.421.38.663.523 1.099 1.165 3.57.798 44.394.225 50.15-.1 1.004-.438 1.693-.919 2.559-19.835.42-39.676.54-59.514.36l-12.339-.043c.208-.403.397-.714.531-1.14 1.222-3.856.83-44.126.255-50.158-.101-1.055-.446-1.766-.949-2.679q30.053.183 60.105-.156"/><path fill="#fefefe" d="m163.032 75.827 108.52-.346c.409.772.836 1.5.973 2.375.619 3.967 1.151 14.07-.934 17.372-7.75-.324-15.594-.084-23.355-.09l-109.027.048c.193-.364.511-.902.647-1.321 1.16-3.557 1.032-14.71-.683-17.883zM64.09 275.758l92.942.023c.237.476.526.959.677 1.472.929 3.166.887 17.661-.666 20.422-2.879 1.364-82.651.339-92.974.329zm65.435-88.552 1.055.451c1.066 3.472 3.331 60.947 3.372 67.182.015 2.168-.048 4.116-.734 6.197-1.019-3.404-13.848-14.307-17.107-17.418-7.29-7.004-14.261-14.353-21.312-21.596 8.067-8.466 16.905-16.383 25.211-24.636 3.184-3.163 7.079-6.421 9.515-10.18m-4.592-149.314c8.889 2.508 88.442 26.83 90.318 28.366.315.257.514.63.771.946-6.742 1.098-19.186.165-26.449.17l-61.411.068c1.04-5.45-2.445-23.19-3.229-29.55M94.234 145.913c4.571 2.483 26.841 26.131 32.942 31.982l-18.912 18.687-16.993 16.709c.708-22.433 2.845-44.969 2.963-67.378m32.013-35.387.581.906 1.995 36.726c.294 5.688 1.109 11.858.696 17.523-.074 1.014-.431 1.691-.934 2.549-.772-3.654-9.602-10.701-12.588-13.624l-17.503-17.442q13.725-13.476 27.753-26.638m-24.791-34.125 29.208-.237c.278.565.527 1.032.609 1.667.51 3.925.963 14.234-1.094 17.4l-8.343-.03q-15.658 0-31.315.22c.11-6.295.063-12.597.085-18.893zM89.845 230.469c6.892 6.125 13.26 13.047 19.901 19.464 5.418 5.235 12.525 10.58 16.925 16.641l-.751.438-37.982.018c1.383-12.028 1.52-24.455 1.907-36.561M54.943 76.629l26.82-.013-.032 18.942-26.806.07zm52.29-45.58 8.069.26c1.106 11.592 4.403 23.758 4.4 35.347-1.417 1.023-2.332.758-4.051.774l-13.995.098c2.022-12.126 3.723-24.325 5.577-36.48M95.957 42.151l.156.172c.977 2.628-2.708 20.615-3.066 25.151l-20.598.006-.527-.518 1.702-1.978-.9-.455 1.113.171a1585 1585 0 0 0 22.12-22.549m3.318 61.859 20.944-.082a764 764 0 0 0-15.042 14.361 791 791 0 0 1-9.803 9.565c.752-5.322-.422-19.6 2.144-23.527zm139.856 32.193c2.145-.385 3.956-.375 5.925.684 1.756.944 2.71 2.318 3.202 4.206 1.228 3.094 1.266 9.613.466 12.87-1.88.82-4.734.498-6.789.527l-8.431.474c1.245-2.504.659-6.158.654-8.919-.011-4.674 1.833-6.712 4.973-9.842m7.218 59.801c1.23-.037 1.694-.23 2.69.583 1.218.995 1.514 2.462 1.699 3.935l-21.484-.016-1.309-.209c-.093-1.144 2.056-2.377 2.745-3.482.104-.168.2-.341.3-.511 2.501.709 4.987 1.376 7.589 1.576 2.622.201 5.685-.145 7.77-1.876"/></svg>
